X:1
T:Nôs Lun
T:Monday Night [2]
M:4/4
L:1/8
Q:"Moderato"
R:Air
B:Nicholas Bennett – Alawon fy Ngwlad (1896, p. 60)
Z:AK/Fiddler’s Companion
K:Eb
B2|(e2 dc)B2(cd)|e2 (BG) F2 (GA)|B2 (GB) c2 (de)|(d2 ec) B2:|
B2|(c2 de) (d2 ef)|e2 (_dB) A2 (Bc|_d2) (ed) c2 (F=A)|B2 BB B2 (cd)|
E2 ee B2 (c_d)|c2 (AG) F2A2|B2 (cA) A2F2|E2 EE E2||

